nameplates/lady_geist.svg

<svg width="1601" height="351" viewBox="0 0 1601 351" fill="none" xmlns="http://www.w3.org/2000/svg">
<g clip-path="url(#clip0_22600_172)">
<path d="M882.472 153.821H974.827L921.545 350.238H917.173L912.619 267.684C896.134 299.723 870.905 320.839 844.492 320.839C787.749 320.839 761.062 265.5 790.39 160.465C819.809 55.43 877.462 0.0910645 934.205 0.0910645C975.1 0.0910645 974.28 6.28029 1000.97 11.5593L974.462 121.873L971.275 122.328L967.358 103.397C953.969 39.6839 948.596 13.2887 930.562 13.2887C908.612 13.2887 891.671 58.0696 862.981 160.465C834.746 261.586 826.64 307.641 848.59 307.641C859.155 307.641 874.639 268.048 900.688 174.937C895.223 167.928 886.935 161.284 881.197 158.28L882.381 153.912L882.472 153.821Z" fill="white"/>
<path d="M953.241 315.013L954.334 311.1C959.343 308.369 964.899 305.275 970.455 299.085L1037.4 59.7988C1035.21 53.6095 1031.48 50.5149 1027.93 47.7844L1029.02 43.8706H1159.99L1143.87 119.416L1139.59 120.963C1132.03 83.0084 1117.55 64.0766 1104.8 55.5209H1100.52L1068.55 169.749H1107.71L1092.41 181.399H1065.27L1031.11 303.363H1034.21C1059.44 289.437 1080.84 266.956 1110.17 229.821L1114.18 230.64L1085.94 315.104H953.059L953.241 315.013Z" fill="white"/>
<path d="M1104.43 315.013L1105.53 311.1C1110.54 308.369 1116.09 305.275 1121.65 299.085L1188.59 59.7988C1186.4 53.6095 1182.67 50.5149 1179.12 47.7844L1180.21 43.8706H1267.83L1266.74 47.7844C1261.73 50.5149 1256.17 53.6095 1250.62 59.7988L1183.67 299.085C1185.86 305.275 1189.59 308.369 1193.14 311.1L1192.05 315.013H1104.43Z" fill="white"/>
<path d="M1220.2 311.1L1237.41 201.15L1241.42 200.786C1246.97 226.726 1254.35 261.222 1262.73 282.52C1269.01 298.812 1273.84 309.279 1281.95 309.279C1288.14 309.279 1290.78 305.366 1292.97 297.629C1304.99 254.668 1255.08 142.352 1270.56 86.9222C1282.13 45.5089 1310.91 38.1365 1340.42 38.1365C1362.92 38.1365 1378.04 46.2371 1396.98 50.5149L1382.41 139.986L1378.4 140.35C1370.75 115.138 1362.92 90.3808 1356.82 73.3605C1351.53 59.0706 1347.89 49.6958 1342.88 49.6958C1336.69 49.6958 1334.68 52.7904 1332.5 60.5269C1321.2 100.757 1371.39 209.615 1355.27 267.32C1347.16 296.355 1322.84 320.748 1285.32 320.748C1260.91 320.748 1245.24 314.558 1220.2 311.1Z" fill="white"/>
<path d="M1402.26 315.013L1403.36 311.1C1408.37 308.369 1413.92 305.275 1419.48 299.085L1487.61 55.521H1483.69C1471.3 69.4467 1463.65 78.7306 1413.83 140.35H1409.91L1442.7 43.9617H1600.82L1579.69 140.35H1575.77C1560.47 78.8216 1558.01 69.4467 1553.37 55.521H1549.45L1481.32 299.085C1483.51 305.275 1487.24 308.369 1490.79 311.1L1489.7 315.013H1402.08H1402.26Z" fill="white"/>
<path d="M222.052 251.21L339.819 45.509H349.382L368.053 261.495C369.419 279.79 372.607 285.069 391.279 286.161L389.912 292.168H295.098L296.465 286.161H306.028C321.512 286.161 328.251 279.79 329.253 267.502C329.618 262.587 329.253 256.216 328.889 248.843L326.43 211.162H254.204L239.722 238.285C232.709 251.665 226.333 264.043 225.605 272.417C224.876 281.246 228.792 286.161 240.086 286.161H246.462L245.096 292.168H181.613L182.979 286.161C201.286 283.703 208.026 275.967 222.144 251.301L222.052 251.21ZM325.701 203.971L317.959 97.2073L258.393 203.971H325.701Z" fill="white"/>
<path d="M376.25 286.07H384.357C399.203 286.07 405.851 280.427 409.768 264.589L453.486 78.5485C457.038 64.4407 452.393 57.0682 438.003 57.0682H430.261L431.627 51.061H521.158C563.784 51.061 598.758 79.9138 598.758 140.168C598.758 225.088 539.192 291.986 465.509 291.986H374.884L376.25 285.979V286.07ZM539.465 217.351C552.125 187.406 559.867 152.546 559.867 119.78C559.867 78.1844 542.926 57.0682 520.065 57.0682H515.876C501.758 57.0682 494.745 63.8036 491.193 78.1844L447.111 264.589C443.558 279.698 447.839 286.07 461.957 286.07H467.239C497.933 286.07 521.887 258.946 539.465 217.351Z" fill="white"/>
<path d="M600.398 286.07H612.056C626.902 286.07 633.551 278.333 637.832 261.404L654.772 189.864L623.714 78.9126C620.162 66.6251 615.608 57.0682 600.125 57.0682H598.758L600.125 51.061H690.02L688.29 57.0682H680.548C671.713 57.0682 666.066 59.5257 664.7 65.5329C663.607 68.7185 663.971 73.6335 665.064 78.5485L690.476 178.213L746.49 97.5713C757.784 81.3701 761.336 73.2694 761.609 67.9904C761.973 60.6179 755.233 57.0682 744.668 57.0682H739.75L741.116 51.061H802.139L800.773 57.0682C782.102 59.8898 775.362 69.3557 754.231 99.3006L692.57 186.314L674.901 261.313C670.711 278.606 673.808 285.979 689.383 285.979H701.678L700.312 291.986H598.758L600.489 285.979L600.398 286.07Z" fill="white"/>
<path d="M193.544 233.279C170.683 266.683 138.806 285.433 102.465 285.433H91.7173C76.9624 285.433 72.4995 277.696 75.7784 263.224L126.601 45.4179C130.335 29.9448 137.713 22.8454 154.745 22.8454H166.221L167.678 16.5652H63.7558L62.2986 22.8454H69.676C86.7079 22.8454 90.3511 30.2179 86.7079 45.4179L36.2497 263.224C32.5155 278.788 25.5023 285.797 10.0188 285.797H1.45728L0 292.077H168.953L206.478 218.716C202.106 224.086 197.825 228.91 193.544 233.279Z" fill="white"/>
</g>
<defs>
<clipPath id="clip0_22600_172">
<rect width="1601" height="350.238" fill="white"/>
</clipPath>
</defs>
</svg>

<svg xmlns="http://www.w3.org/2000/svg" width="1601" height="351" fill="none"><g fill="#fff" clip-path="url(#a)"><path d="M882.472 153.821h92.355l-53.282 196.417h-4.372l-4.554-82.554c-16.485 32.039-41.714 53.155-68.127 53.155-56.743 0-83.43-55.339-54.102-160.374C819.809 55.43 877.462.091 934.205.091c40.895 0 40.075 6.19 66.765 11.468l-26.508 110.314-3.187.455-3.917-18.931c-13.389-63.713-18.762-90.108-36.796-90.108-21.95 0-38.891 44.78-67.581 147.176-28.235 101.121-36.341 147.176-14.391 147.176 10.565 0 26.049-39.593 52.098-132.704-5.465-7.009-13.753-13.653-19.491-16.657l1.184-4.368zm70.769 161.192 1.093-3.913c5.009-2.731 10.565-5.825 16.121-12.015L1037.4 59.799c-2.19-6.19-5.92-9.284-9.47-12.015l1.09-3.913h130.97l-16.12 75.545-4.28 1.547c-7.56-37.955-22.04-56.886-34.79-65.442h-4.28l-31.97 114.228h39.16l-15.3 11.65h-27.14l-34.16 121.964h3.1c25.23-13.926 46.63-36.407 75.96-73.542l4.01.819-28.24 84.464H953.059zm151.189 0 1.1-3.913c5.01-2.731 10.56-5.825 16.12-12.015l66.94-239.286c-2.19-6.19-5.92-9.284-9.47-12.015l1.09-3.913h87.62l-1.09 3.913c-5.01 2.73-10.57 5.825-16.12 12.015l-66.95 239.286c2.19 6.19 5.92 9.284 9.47 12.015l-1.09 3.913zm115.77-3.913 17.21-109.95 4.01-.364c5.55 25.94 12.93 60.436 21.31 81.734 6.28 16.292 11.11 26.759 19.22 26.759 6.19 0 8.83-3.913 11.02-11.65 12.02-42.961-37.89-155.277-22.41-210.707 11.57-41.413 40.35-48.785 69.86-48.785 22.5 0 37.62 8.1 56.56 12.378l-14.57 89.471-4.01.364c-7.65-25.212-15.48-49.97-21.58-66.99-5.29-14.29-8.93-23.664-13.94-23.664-6.19 0-8.2 3.094-10.38 10.83-11.3 40.231 38.89 149.089 22.77 206.794-8.11 29.035-32.43 53.428-69.95 53.428-24.41 0-40.08-6.19-65.12-9.648m182.06 3.913 1.1-3.913c5.01-2.731 10.56-5.825 16.12-12.015l68.13-243.564h-3.92c-12.39 13.926-20.04 23.21-69.86 84.829h-3.92l32.79-96.388h158.12l-21.13 96.388h-3.92c-15.3-61.528-17.76-70.903-22.4-84.829h-3.92l-68.13 243.564c2.19 6.19 5.92 9.284 9.47 12.015l-1.09 3.913h-87.62zM222.052 251.21 339.819 45.509h9.563l18.671 215.986c1.366 18.295 4.554 23.574 23.226 24.666l-1.367 6.007h-94.814l1.367-6.007h9.563c15.484 0 22.223-6.371 23.225-18.659.365-4.915 0-11.286-.364-18.659l-2.459-37.681h-72.226l-14.482 27.123c-7.013 13.38-13.389 25.758-14.117 34.132-.729 8.829 3.187 13.744 14.481 13.744h6.376l-1.366 6.007h-63.483l1.366-6.007c18.307-2.458 25.047-10.194 39.165-34.86zm103.649-47.239-7.742-106.764-59.566 106.764z"/><path d="M376.25 286.07h8.107c14.846 0 21.494-5.643 25.411-21.481l43.718-186.04c3.552-14.108-1.093-21.48-15.483-21.48h-7.742l1.366-6.008h89.531c42.626 0 77.6 28.853 77.6 89.107 0 84.92-59.566 151.818-133.249 151.818h-90.625l1.366-6.007zm163.215-68.719c12.66-29.945 20.402-64.805 20.402-97.571 0-41.596-16.941-62.712-39.802-62.712h-4.189c-14.118 0-21.131 6.736-24.683 21.116L447.111 264.59c-3.553 15.109.728 21.481 14.846 21.481h5.282c30.694 0 54.648-27.124 72.226-68.719m60.933 68.718h11.658c14.846 0 21.495-7.737 25.776-24.666l16.94-71.54-31.058-110.951c-3.552-12.288-8.106-21.845-23.589-21.845h-1.367l1.367-6.007h89.895l-1.73 6.007h-7.742c-8.835 0-14.482 2.458-15.848 8.465-1.093 3.186-.729 8.1.364 13.016l25.412 99.664 56.014-80.642c11.294-16.2 14.846-24.302 15.119-29.58.364-7.373-6.376-10.923-16.941-10.923h-4.918l1.366-6.007h61.023l-1.366 6.007c-18.671 2.822-25.411 12.288-46.542 42.233l-61.661 87.013-17.669 74.999c-4.19 17.293-1.093 24.666 14.482 24.666h12.295l-1.366 6.007H598.758l1.731-6.007zm-406.854-52.791c-22.861 33.404-54.738 52.154-91.079 52.154H91.717c-14.755 0-19.217-7.737-15.939-22.209l50.823-217.806c3.734-15.473 11.112-22.573 28.144-22.573h11.476l1.457-6.28H63.756l-1.457 6.28h7.377c17.032 0 20.675 7.373 17.032 22.573L36.25 263.224c-3.734 15.564-10.748 22.573-26.231 22.573H1.457L0 292.077h168.953l37.525-73.361c-4.372 5.37-8.653 10.194-12.934 14.563"/></g><defs><clipPath id="a"><path fill="#fff" d="M0 0h1601v350.238H0z"/></clipPath></defs></svg>
